X:1
T:Title
T:Sonata in G minor
T:Vivaldi
T:GIGA
C:Composer
L:1/8
Q:1/4=144
M:6/8
K:F
V:1 treble nm="Piano" snm="Pno."
V:1
|:"^Allegro" z4 z[Q:1/4=180]"^\n" d | (g^f).g (ag).a | (ba).b g2 a | (ba).b (c'b).c' | %4
 (d'c').d' (bc').d' | (ab).c' (ga).b | (^fe).d (de).f | g3 z2 g | (_ed).c (cd).e | f3 z2 f | %10
 (d_ef gab) | (cd_e fga) | (Bcd _efg) | (ABc d_ef) | (GAB cd_e) | (AGF) (Bcd) | (GAB) (FBA) | %17
 B,3 z z2 | z2 c (fg).f | (dc).B (ga).g | (ed).c (ab).a | (fe).d (ba).b | (gf).g (ed).e | %23
 ^c=BA (d=c_B) | (AGF) (PF2 E) | D3 (dcB) | (AGF) (PF2 E) | D6 :: z4 z A | (d^c).d (ed).e | %30
 (fe).f d2 .e | (fe).f (gf).g | (ag).a (fg).a | (ef).g (de).f | ^c2 e a3- | a2 g (fe).d | %36
 g3- g2 .f | (ef).g c3- | cBA f3- | f2 .B _e3- | e2 .A d3- | d2 .G c3- | c2 .F B3- | B3 (AB).c | %44
 (Bdc BAG) | _e3- e2 .g | ((cd)_e) (c2 B) | A3- A2 .f | (Bcd) (B2 A) | G3- G2 ._e | (_edc) (BAG) | %51
 (^FED) (GFE) | (AG^F) (BAG) | (cBA) (dcB) | (_edc) (^f=ed) | b3- bag | (^fdg) Pg2 f | g3 (d2 B) | %58
 G3 (_e2 A) | ^F3 (d2 G) | _E3 (c2 ^F) | D3 (gf_e) | (dcB) (PB2 A) | G3"^rit." (gf_e) | %64
 (dcB) (PB2 A) | G3- !fermata!G2 z!fine! :| z6 | z6 | z6 | z6 | z6 | z6 | z6 | z6 | z6 |] %75

